.icons/oomox-ad/64x64/apps/elisa.svg

<svg xmlns="http://www.w3.org/2000/svg" width="64" height="64" version="1.1">
 <path style="opacity:0.2" d="m 3,50.1074 v 1 C 3,53.8163 5.0181735,56 7.5253906,56 H 56.474609 C 58.981826,56 61,53.8163 61,51.1074 v -1 C 61,52.8163 58.981826,55 56.474609,55 H 7.5253906 C 5.0181735,55 3,52.8163 3,50.1074 Z"/>
 <path style="fill:#3f3f3f" d="m 7.5258554,7.9999 c -2.507217,0 -4.5258558,2.1833 -4.5258558,4.8922 v 37.2156 c 0,2.7089 2.0186387,4.8922 4.5258558,4.8922 H 56.474144 C 58.981361,54.9999 61,52.8166 61,50.1077 V 12.8921 C 61,10.1832 58.981361,7.9999 56.474144,7.9999 Z M 19.571428,25.2793 A 6.2142858,6.220599 0 0 1 25.785714,31.5 6.2142858,6.220599 0 0 1 19.571428,37.7205 6.2142858,6.220599 0 0 1 13.357143,31.5 6.2142858,6.220599 0 0 1 19.571428,25.2793 Z m 24.857144,0 A 6.2142858,6.220599 0 0 1 50.642857,31.5 6.2142858,6.220599 0 0 1 44.428572,37.7205 6.2142858,6.220599 0 0 1 38.214286,31.5 6.2142858,6.220599 0 0 1 44.428572,25.2793 Z"/>
 <path style="fill:#4f4f4f" d="M 8.9999998,55 14.411763,45 H 49.588235 L 55,55 Z"/>
 <path style="fill:#1eb5c5" d="M 11.306641 14 C 10.027873 14 9 15.207784 9 16.708984 L 9 25 L 9 39.451172 C 9 40.864072 10.027873 42 11.306641 42 L 52.693359 42 C 53.972123 42 55 40.864072 55 39.451172 L 55 25 L 55 16.708984 C 55 15.207784 53.972123 14 52.693359 14 L 11.306641 14 z M 20 26.5 A 4.5 4.5 0 0 1 24.5 31 A 4.5 4.5 0 0 1 20 35.5 A 4.5 4.5 0 0 1 15.5 31 A 4.5 4.5 0 0 1 20 26.5 z M 44 26.5 A 4.5 4.5 0 0 1 48.5 31 A 4.5 4.5 0 0 1 44 35.5 A 4.5 4.5 0 0 1 39.5 31 A 4.5 4.5 0 0 1 44 26.5 z"/>
 <circle style="opacity:0.4" cx="19.5" cy="49.5" r="2.5"/>
 <path style="fill:#3f3f3f" d="m 20,25 a 6,6 0 0 0 -6,6 6,6 0 0 0 6,6 h 24 a 6,6 0 0 0 6,-6 6,6 0 0 0 -6,-6 z m 0,2 a 4,4 0 0 1 4,4 4,4 0 0 1 -4,4 4,4 0 0 1 -4,-4 4,4 0 0 1 4,-4 z m 24,0 a 4,4 0 0 1 4,4 4,4 0 0 1 -4,4 4,4 0 0 1 -4,-4 4,4 0 0 1 4,-4 z"/>
 <g transform="matrix(1.0137931,0,0,1.0862069,-0.44136325,-1153.0127)">
  <rect style="fill:#cccccc" width="13.81" height="5.524" x="25.09" y="1087.28"/>
  <path style="fill:#874f29" d="m 25.095235,1087.2815 v 5.5238 h 5.435294 c 0.316646,-0.8865 0.479913,-1.8205 0.482789,-2.7618 -0.0029,-0.9414 -0.16612,-1.8754 -0.482789,-2.762 z"/>
 </g>
 <circle style="opacity:0.4" cx="44.5" cy="49.5" r="2.5"/>
 <path style="opacity:0.1;fill:#ffffff" d="M 7.5253906,8 C 5.0181736,8 3,10.183678 3,12.892578 v 1 C 3,11.183678 5.0181736,9 7.5253906,9 H 56.474609 C 58.981826,9 61,11.183678 61,13.892578 v -1 C 61,10.183678 58.981826,8 56.474609,8 Z"/>
 <path style="opacity:0.2" d="m 9,39.451172 v 1 C 9,41.864072 10.027873,43 11.306641,43 H 52.693359 C 53.972123,43 55,41.864072 55,40.451172 v -1 C 55,40.864072 53.972123,42 52.693359,42 H 11.306641 C 10.027873,42 9,40.864072 9,39.451172 Z"/>
 <rect style="opacity:0.2" width="14" height="1" x="25" y="28"/>
 <path style="opacity:0.2" d="m 20,27 a 4,4 0 0 0 -4,4 4,4 0 0 0 0.03516,0.505859 A 4,4 0 0 1 20,28 4,4 0 0 1 23.964844,31.494141 4,4 0 0 0 24,31 4,4 0 0 0 20,27 Z m 24,0 a 4,4 0 0 0 -4,4 4,4 0 0 0 0.03516,0.505859 A 4,4 0 0 1 44,28 4,4 0 0 1 47.964844,31.494141 4,4 0 0 0 48,31 4,4 0 0 0 44,27 Z"/>
 <path style="opacity:0.1;fill:#ffffff" d="M 14.412109,45 9,55 h 0.5410156 l 4.8710934,-9 h 35.175782 l 4.871093,9 H 55 L 49.587891,45 Z"/>
 <path style="opacity:0.2;fill:#ffffff" d="M 11.306641,14 C 10.027873,14 9,15.207784 9,16.708984 v 1 C 9,16.207784 10.027873,15 11.306641,15 H 52.693359 C 53.972123,15 55,16.207784 55,17.708984 v -1 C 55,15.207784 53.972123,14 52.693359,14 Z"/>
</svg>

<svg xmlns="http://www.w3.org/2000/svg" width="64" height="64" version="1.1">
 <g transform="translate(0,-1058.5197)">
  <path style="opacity:0.2" d="m 3,1108.6271 v 1 c 0,2.7089 2.0181735,4.8926 4.5253906,4.8926 H 56.474609 c 2.507217,0 4.525391,-2.1837 4.525391,-4.8926 v -1 c 0,2.7089 -2.018174,4.8926 -4.525391,4.8926 H 7.5253906 C 5.0181735,1113.5197 3,1111.336 3,1108.6271 Z"/>
  <path style="fill:#3f3f3f" d="m 7.5258554,1066.5196 c -2.507217,0 -4.5258558,2.1833 -4.5258558,4.8922 v 37.2156 c 0,2.7089 2.0186387,4.8922 4.5258558,4.8922 H 56.474144 c 2.507217,0 4.525856,-2.1833 4.525856,-4.8922 v -37.2156 c 0,-2.7089 -2.018639,-4.8922 -4.525856,-4.8922 z m 12.0455726,17.2794 a 6.2142858,6.220599 0 0 1 6.214286,6.2207 6.2142858,6.220599 0 0 1 -6.214286,6.2205 6.2142858,6.220599 0 0 1 -6.214285,-6.2205 6.2142858,6.220599 0 0 1 6.214285,-6.2207 z m 24.857144,0 a 6.2142858,6.220599 0 0 1 6.214285,6.2207 6.2142858,6.220599 0 0 1 -6.214285,6.2205 6.2142858,6.220599 0 0 1 -6.214286,-6.2205 6.2142858,6.220599 0 0 1 6.214286,-6.2207 z"/>
  <path style="fill:#4f4f4f" d="m 8.9999998,1113.5197 5.4117632,-10 h 35.176472 l 5.411765,10 z"/>
  <path style="fill:#e4e4e4" d="m 11.30687,1072.5197 c -1.278768,0 -2.3068701,1.2071 -2.3068701,2.7083 v 8.2917 H 55 v -8.2917 c 0,-1.5012 -1.028107,-2.7083 -2.306871,-2.7083 z"/>
  <path style="fill:#1eb259" transform="translate(0,1058.5197)" d="M 9 25 L 9 39.451172 C 9 40.864072 10.027873 42 11.306641 42 L 52.693359 42 C 53.972123 42 55 40.864072 55 39.451172 L 55 25 L 9 25 z M 20 26.5 A 4.5 4.5 0 0 1 24.5 31 A 4.5 4.5 0 0 1 20 35.5 A 4.5 4.5 0 0 1 15.5 31 A 4.5 4.5 0 0 1 20 26.5 z M 44 26.5 A 4.5 4.5 0 0 1 48.5 31 A 4.5 4.5 0 0 1 44 35.5 A 4.5 4.5 0 0 1 39.5 31 A 4.5 4.5 0 0 1 44 26.5 z"/>
  <circle style="opacity:0.4" cx="19.5" cy="1108.02" r="2.5"/>
  <path style="fill:#3f3f3f" transform="translate(0,1058.5197)" d="M 20 25 A 6 6 0 0 0 14 31 A 6 6 0 0 0 20 37 L 44 37 A 6 6 0 0 0 50 31 A 6 6 0 0 0 44 25 L 20 25 z M 20 27 A 4 4 0 0 1 24 31 A 4 4 0 0 1 20 35 A 4 4 0 0 1 16 31 A 4 4 0 0 1 20 27 z M 44 27 A 4 4 0 0 1 48 31 A 4 4 0 0 1 44 35 A 4 4 0 0 1 40 31 A 4 4 0 0 1 44 27 z"/>
  <g transform="matrix(1.0137931,0,0,1.0862069,-0.44136325,-94.492961)">
   <rect style="fill:#cccccc" width="13.81" height="5.524" x="25.09" y="1087.28"/>
   <path style="fill:#874f29" d="m 25.095235,1087.2815 v 5.5238 h 5.435294 c 0.316646,-0.8865 0.479913,-1.8205 0.482789,-2.7618 -0.0029,-0.9414 -0.16612,-1.8754 -0.482789,-2.762 z"/>
  </g>
  <circle style="opacity:0.4" cx="44.5" cy="1108.02" r="2.5"/>
  <path style="opacity:0.1;fill:#ffffff" transform="translate(0,1058.5197)" d="M 7.5253906 8 C 5.0181736 8 3 10.183678 3 12.892578 L 3 13.892578 C 3 11.183678 5.0181736 9 7.5253906 9 L 56.474609 9 C 58.981826 9 61 11.183678 61 13.892578 L 61 12.892578 C 61 10.183678 58.981826 8 56.474609 8 L 7.5253906 8 z"/>
  <path style="opacity:0.2" transform="translate(0,1058.5197)" d="M 9 39.451172 L 9 40.451172 C 9 41.864072 10.027873 43 11.306641 43 L 52.693359 43 C 53.972123 43 55 41.864072 55 40.451172 L 55 39.451172 C 55 40.864072 53.972123 42 52.693359 42 L 11.306641 42 C 10.027873 42 9 40.864072 9 39.451172 z"/>
  <rect style="opacity:0.2" width="14" height="1" x="25" y="1086.52"/>
  <path style="opacity:0.2" transform="translate(0,1058.5197)" d="M 20 27 A 4 4 0 0 0 16 31 A 4 4 0 0 0 16.035156 31.505859 A 4 4 0 0 1 20 28 A 4 4 0 0 1 23.964844 31.494141 A 4 4 0 0 0 24 31 A 4 4 0 0 0 20 27 z M 44 27 A 4 4 0 0 0 40 31 A 4 4 0 0 0 40.035156 31.505859 A 4 4 0 0 1 44 28 A 4 4 0 0 1 47.964844 31.494141 A 4 4 0 0 0 48 31 A 4 4 0 0 0 44 27 z"/>
  <path style="fill:#ffffff;opacity:0.1" transform="translate(0,1058.5197)" d="M 14.412109 45 L 9 55 L 9.5410156 55 L 14.412109 46 L 49.587891 46 L 54.458984 55 L 55 55 L 49.587891 45 L 14.412109 45 z"/>
 </g>
</svg>
